X:1
T:[ID 1-140]
T:[ID 1-140]
T:Bezeichnung standardisiert: Menuett Menuet no 3.
T:Urheber unbekannt Erstbeleg: vor 1767 (Datum in der schriftlichen Quelle) Datum in der hier transkribierten schriftlichen Quelle: 1792
C:Urheber unbekannt
C:Erstbeleg: vor 1767 (Datum in der schriftlichen Quelle)
C:Datum in der hier transkribierten schriftlichen Quelle: 1792
L:1/8
M:3/4
K:D
V:1 treble 
V:1
 c4 (3def | ed e2 f2 | g4 (3fga | g2 f2 e2 | G4 (3ABc | BGdBgd | c2 B2 A^F | G6 :: d4 (3cde | %9
 d2 e2 f2 | egfedc | BA G4 | (3def f2 (3fga | g2 f2 e2 | dfedcB | c6 :| %16

